X:1
T:Title
%%score { 1 | 2 }
L:1/8
Q:1/4=100
M:4/4
K:F
V:1 treble nm="Grand Piano"
V:2 bass 
V:1
 A2 c2 d2 c2 | F2 B2 A4 | [EG][EG][EG][EG] [DF]2 [EG]2 | A2 c6 | A2 c2 d2 c2 | F2 B2 A4 | %6
w: J.~Lincoln~Hall * * *||||||
 [Ec][EG][EG][FA] [EB]2 E2 | G2 F6 | d4 f4 | [Ac]4 [FA]4 | [Ec][EG][EG][FA] [GB]4 | dccA c4 | %12
w: ||||||
 d4 f4 | [Ac]4 [FA]4 | [Ec][EG][EG][FA] [EB]2 E2 | G2 F6 |] %16
w: ||||
V:2
 [F,CF]2 [F,A,F]2 [F,B,F]2 [F,A,F]2 | [F,A,]2 [F,DF]2 [F,CF]4 | %2
 [C,C][C,C][C,C][C,C] [C,C]2 [C,C]2 | [F,CF]2 [F,A,F]6 | [F,CF]2 [F,A,F]2 [F,B,F]2 [F,A,F]2 | %5
 [F,A,]2 [F,DF]2 [F,CF]4 | [C,C][C,C][C,C][C,C] [C,G,]2 [C,B,C]2 | [F,B,C]2 [F,A,C]6 | %8
 [B,F]4 [B,DF]4 | [F,F]4 [F,C]4 | [C,C][C,C][C,C][C,C] [C,C]4 | %11
 [F,B,F][F,A,F][F,A,F][F,CF] [F,A,F]4 | [B,F]4 [B,DF]4 | [F,F]4 [F,C]4 | %14
 [C,C][C,C][C,C][C,C] [C,G,]2 [C,B,C]2 | [F,B,C]2 [F,A,C]6 |] %16

